X:1
T:Eden (Havergal), CM
T:Eden (Havergal), CM
T:William Henry Havergal, 1853
T:Public Domain Courtesy of the Cyber Hymnal™
C:William Henry Havergal, 1853
Z:Public Domain
Z:Courtesy of the Cyber Hymnal™
%%score 1 ( 2 3 )
L:1/8
M:3/2
K:Ab
V:1 treble 
V:2 bass 
V:3 bass 
V:1
 [EA]4 | [Ec]2 [FB]2 [EA]2 [EG]2 [EA]2 [DF]2 | [B,E]8 [DF]4 | [EA]2 [DG]2 [CF]4 [C=E]4 | %4
 [CF]8 [EA]4 | [CA]2 [DG]2 [EA]2 [EB]2 [Ec]2 [A=d]2 | [Ge]8 [CA]4 | [Ec]2 [FB]2 [EA]4 [EG]4 | %8
 [EA]8 |] %9
V:2
 [A,,C]4 | [A,,E]2 [G,,D]2 [A,,C]2 [B,,B,]2 [C,A,]2 [D,A,]2 | [E,G,]8 [D,A,]4 | %3
 [A,,C]2 [B,,B,]2 [C,A,]4 [C,G,]4 | [F,,A,]8 [A,C]4 | [CE]2 [B,D]2 [A,C]2 [G,B,]2 A,2 [F,B,]2 | %6
 [E,B,]8 [F,A,]4 | [C,A,]2 [D,D]2 [E,C]4 [E,B,]4 | [A,,C]8 |] %9
V:3
 x4 | x12 | x12 | x12 | x12 | x8 A,2 x2 | x12 | x12 | x8 |] %9

